src/xmlsecurity/res/certificate_16.svg

<?xml version="1.0" encoding="UTF-8" standalone="no"?>
<svg
   xmlns:dc="http://purl.org/dc/elements/1.1/"
   xmlns:cc="http://creativecommons.org/ns#"
   xmlns:rdf="http://www.w3.org/1999/02/22-rdf-syntax-ns#"
   xmlns:svg="http://www.w3.org/2000/svg"
   xmlns="http://www.w3.org/2000/svg"
   xmlns:sodipodi="http://sodipodi.sourceforge.net/DTD/sodipodi-0.dtd"
   xmlns:inkscape="http://www.inkscape.org/namespaces/inkscape"
   viewBox="0 0 16 16"
   version="1.1"
   id="svg6"
   sodipodi:docname="certificate_16.svg"
   inkscape:export-filename="/home/jupiter007/Libreoffice yaru theme fullcolor/build/xmlsecurity/res/certificate_16.png"
   inkscape:export-xdpi="95"
   inkscape:export-ydpi="95"
   inkscape:version="0.92.5 (2060ec1f9f, 2020-04-08)">
  <metadata
     id="metadata12">
    <rdf:RDF>
      <cc:Work
         rdf:about="">
        <dc:format>image/svg+xml</dc:format>
        <dc:type
           rdf:resource="http://purl.org/dc/dcmitype/StillImage" />
      </cc:Work>
    </rdf:RDF>
  </metadata>
  <defs
     id="defs10" />
  <sodipodi:namedview
     pagecolor="#ffffff"
     bordercolor="#666666"
     borderopacity="1"
     objecttolerance="10"
     gridtolerance="10"
     guidetolerance="10"
     inkscape:pageopacity="0"
     inkscape:pageshadow="2"
     inkscape:window-width="1920"
     inkscape:window-height="1011"
     id="namedview8"
     showgrid="false"
     inkscape:zoom="14.75"
     inkscape:cx="0.44067797"
     inkscape:cy="8"
     inkscape:window-x="0"
     inkscape:window-y="32"
     inkscape:window-maximized="1"
     inkscape:current-layer="svg6" />
  <path
     sodipodi:nodetypes="cccscsccccccccscscccccc"
     inkscape:connector-curvature="0"
     id="path4237-1"
     d="m 4.9946166,1.0000011 c -1.2582001,0.0145 -2.1788911,-0.0306 -2.9316411,0.384766 -0.37637,0.20766 -0.673231,0.559386 -0.837891,0.998046 -0.16467,0.43867 -0.224609,0.959588 -0.224609,1.617188 v 1.488281 6.5117199 c 0,0.657609 0.0599,1.178577 0.224609,1.617189 0.16468,0.43861 0.461531,0.788523 0.837891,0.996092 0.75272,0.415131 1.6735411,0.37165 2.9316411,0.386719 h 0.002 6.0048584 0.0039 c 1.25819,-0.0145 2.178891,0.0306 2.931641,-0.384766 0.37637,-0.20766 0.673221,-0.559386 0.837891,-0.998045 0.164539,-0.438671 0.224618,-0.95958 0.224618,-1.617189 V 5.4667981 4.0000011 c 0,-0.6576 -0.0599,-1.178577 -0.224609,-1.617188 -0.16468,-0.438599 -0.461531,-0.788533 -0.837891,-0.996093 -0.75277,-0.41512999 -1.673601,-0.371639 -2.931691,-0.386719 h -0.002 -6.0048584 z"
     style="font-style:normal;font-variant:normal;font-weight:normal;font-stretch:normal;font-size:15px;line-height:125%;font-family:Ubuntu;-inkscape-font-specification:Ubuntu;text-align:center;letter-spacing:0px;word-spacing:0px;writing-mode:lr-tb;text-anchor:middle;display:inline;opacity:0.7;fill:#000000;fill-opacity:1;stroke:none;stroke-width:0.99980211" />
  <path
     inkscape:connector-curvature="0"
     id="path1993"
     d="m 5.9828446,2.0271861 c -1.556581,0.0108 -1.10899,-0.01175 -2.6589411,0.03877 -0.461229,0.04267 -1.016188,0.206419 -1.15534,0.709967 -0.218994,0.635346 -0.108414,1.333787 -0.145796,1.981924 -0.0078,2.297084 -0.02297,5.5958459 0.02152,7.8851979 0.0391,0.461929 0.202551,1.012665 0.698756,1.163665 0.632456,0.225083 1.2841441,0.12274 1.9359741,0.154299 1.424235,0.0068 0.849563,0.01102 2.27542,0.01131 1.7045313,3.49e-4 3.4083874,-0.005 5.1071894,-0.01851 0.511911,-0.01201 1.183699,0.01993 1.584745,-0.405192 0.421097,-0.539783 0.287073,-1.268021 0.322745,-1.903787 0.01187,-2.4443229 0.02769,-5.9105129 -0.0219,-8.3562119 -0.04928,-0.40204 -0.169992,-0.862952 -0.575139,-1.044475 -0.668169,-0.294097 -1.426205,-0.168019 -2.125921,-0.205572 -1.7544061,-0.0118 -3.5088734,-0.01249 -5.2633124,-0.01139 z"
     style="opacity:1;vector-effect:none;fill:#ffffff;fill-opacity:1;stroke:none;stroke-width:1;stroke-linecap:round;stroke-linejoin:bevel;stroke-miterlimit:4;stroke-dasharray:none;stroke-dashoffset:0;stroke-opacity:1"
     sodipodi:nodetypes="cccccccscccccccc" />
  <path
     sodipodi:nodetypes="cccccc"
     inkscape:connector-curvature="0"
     id="path848"
     d="m 10,10.000001 h 4 v 5.000001 l -2,-2 -2,2 z"
     style="opacity:0.7;fill:#000000;fill-opacity:1;stroke:#000000;stroke-width:2;stroke-linejoin:round;stroke-miterlimit:4;stroke-dasharray:none;stroke-opacity:1" />
  <path
     style="opacity:1;fill:#e95420;fill-opacity:1;stroke:none;stroke-width:2;stroke-linejoin:round;stroke-miterlimit:4;stroke-dasharray:none;stroke-opacity:1"
     d="m 10,10.000001 h 4 v 5.000001 l -2,-2 -2,2 z"
     id="rect842"
     inkscape:connector-curvature="0"
     sodipodi:nodetypes="cccccc" />
  <circle
     cy="8.000001"
     cx="12"
     id="circle846"
     style="opacity:0.7;fill:#000000;fill-opacity:1;stroke:#000000;stroke-width:2;stroke-linejoin:round;stroke-miterlimit:4;stroke-dasharray:none;stroke-opacity:1"
     r="2.9999995" />
  <circle
     style="opacity:1;fill:#e95420;fill-opacity:1;stroke:none;stroke-width:3.99999976;stroke-linejoin:round;stroke-miterlimit:4;stroke-dasharray:none;stroke-opacity:1"
     id="path840"
     cx="12"
     cy="8.000001"
     r="3" />
  <circle
     style="opacity:1;fill:#ffffff;fill-opacity:1;stroke:none;stroke-width:4;stroke-linejoin:round;stroke-miterlimit:4;stroke-dasharray:none;stroke-opacity:1"
     id="path852"
     cx="12"
     cy="8.000001"
     r="1" />
</svg>

<?xml version="1.0" encoding="UTF-8" standalone="no"?>
<svg
   viewBox="0 0 16 16"
   version="1.1"
   id="svg6"
   sodipodi:docname="certificate_16.svg"
   inkscape:export-filename="/home/jupiter007/Libreoffice yaru theme fullcolor/build/xmlsecurity/res/certificate_16.png"
   inkscape:export-xdpi="95"
   inkscape:export-ydpi="95"
   inkscape:version="1.1.1 (50ffc5b540, 2022-01-11)"
   xmlns:inkscape="http://www.inkscape.org/namespaces/inkscape"
   xmlns:sodipodi="http://sodipodi.sourceforge.net/DTD/sodipodi-0.dtd"
   xmlns="http://www.w3.org/2000/svg"
   xmlns:svg="http://www.w3.org/2000/svg"
   xmlns:rdf="http://www.w3.org/1999/02/22-rdf-syntax-ns#"
   xmlns:cc="http://creativecommons.org/ns#"
   xmlns:dc="http://purl.org/dc/elements/1.1/">
  <metadata
     id="metadata12">
    <rdf:RDF>
      <cc:Work
         rdf:about="">
        <dc:format>image/svg+xml</dc:format>
        <dc:type
           rdf:resource="http://purl.org/dc/dcmitype/StillImage" />
      </cc:Work>
    </rdf:RDF>
  </metadata>
  <defs
     id="defs10" />
  <sodipodi:namedview
     pagecolor="#ffffff"
     bordercolor="#666666"
     borderopacity="1"
     objecttolerance="10"
     gridtolerance="10"
     guidetolerance="10"
     inkscape:pageopacity="0"
     inkscape:pageshadow="2"
     inkscape:window-width="1920"
     inkscape:window-height="1043"
     id="namedview8"
     showgrid="false"
     inkscape:zoom="10.429825"
     inkscape:cx="7.4306136"
     inkscape:cy="-7.8620686"
     inkscape:window-x="1920"
     inkscape:window-y="0"
     inkscape:window-maximized="1"
     inkscape:current-layer="svg6"
     inkscape:pagecheckerboard="0" />
  <path
     id="path4237-1"
     style="font-style:normal;font-variant:normal;font-weight:normal;font-stretch:normal;font-size:15px;line-height:125%;font-family:Ubuntu;-inkscape-font-specification:Ubuntu;text-align:center;letter-spacing:0px;word-spacing:0px;writing-mode:lr-tb;text-anchor:middle;display:inline;opacity:0.7;fill:#000000;fill-opacity:1;stroke:none;stroke-width:0.99980211"
     d="M 4.9941406 1 C 3.7359405 1.0145 2.81525 0.96939962 2.0625 1.3847656 C 1.68613 1.5924256 1.3892694 1.9441525 1.2246094 2.3828125 C 1.0599394 2.8214825 1 3.3424 1 4 L 1 5.4882812 L 1 12 C 1 12.657609 1.0599004 13.178575 1.2246094 13.617188 C 1.3892894 14.055798 1.68614 14.405712 2.0625 14.613281 C 2.81522 15.028412 3.7360406 14.984931 4.9941406 15 L 4.9960938 15 L 9 15 L 9 11.521484 C 8.4016108 10.80732 8.00115 9.9453109 8 9.0019531 A 1.0001 1.0001 0 0 0 8 9 C 8 6.8027078 9.8027078 5 12 5 C 13.191031 5 14.265094 5.5301748 15 6.3652344 L 15 5.4667969 L 15 4 C 15 3.3424 14.9401 2.8214235 14.775391 2.3828125 C 14.610711 1.9442135 14.31386 1.5942787 13.9375 1.3867188 C 13.18473 0.97158876 12.263949 1.01508 11.005859 1 L 11.003906 1 L 4.9980469 1 L 4.9941406 1 z " />
  <path
     id="path1993"
     style="opacity:1;vector-effect:none;fill:#ffffff;fill-opacity:1;stroke:none;stroke-width:1;stroke-linecap:round;stroke-linejoin:bevel;stroke-miterlimit:4;stroke-dasharray:none;stroke-dashoffset:0;stroke-opacity:1"
     d="M 5.9824219 2.0273438 C 4.4258409 2.0381438 4.8741698 2.0158863 3.3242188 2.0664062 C 2.8629898 2.1090763 2.3071208 2.2718426 2.1679688 2.7753906 C 1.9489748 3.4107366 2.0608195 4.1096755 2.0234375 4.7578125 C 2.0156375 7.0548965 2.0004319 10.353226 2.0449219 12.642578 C 2.0840219 13.104507 2.2459825 13.655641 2.7421875 13.806641 C 3.3746435 14.031724 4.0278575 13.929379 4.6796875 13.960938 C 6.1039225 13.967738 5.5292211 13.972366 6.9550781 13.972656 C 7.637282 13.972796 8.3182932 13.970594 9 13.96875 L 9 11.521484 C 8.4016108 10.80732 8.00115 9.9453109 8 9.0019531 A 1.0001 1.0001 0 0 0 8 9 C 8 6.8027078 9.8027078 5 12 5 C 12.715673 5 13.389356 5.1915644 13.972656 5.5253906 C 13.967488 4.7324769 13.961038 3.9683009 13.947266 3.2890625 C 13.897986 2.8870225 13.778194 2.4256636 13.373047 2.2441406 C 12.704878 1.9500436 11.94581 2.0766155 11.246094 2.0390625 C 9.4916876 2.0272625 7.7368609 2.0262437 5.9824219 2.0273438 z " />
  <path
     id="rect842"
     style="opacity:1;fill:#e95420;fill-opacity:1;stroke:none;stroke-width:2;stroke-linejoin:round;stroke-miterlimit:4;stroke-dasharray:none;stroke-opacity:1"
     d="M 10 12.458984 L 10 16 L 12 14 L 14 16 L 14 12.458984 C 13.410446 12.802579 12.7269 13 12 13 C 11.2731 13 10.589554 12.802579 10 12.458984 z " />
  <circle
     style="opacity:1;fill:#e95420;fill-opacity:1;stroke:none;stroke-width:4;stroke-linejoin:round;stroke-miterlimit:4;stroke-dasharray:none;stroke-opacity:1"
     id="path840"
     cx="12"
     cy="9"
     r="3" />
  <circle
     style="opacity:1;fill:#ffffff;fill-opacity:1;stroke:none;stroke-width:4;stroke-linejoin:round;stroke-miterlimit:4;stroke-dasharray:none;stroke-opacity:1"
     id="path852"
     cx="12"
     cy="9"
     r="1" />
</svg>
